static/icons/security.svg

<svg width="100" height="100" viewBox="0 0 100 100" fill="none" xmlns="http://www.w3.org/2000/svg">
<path d="M50 93.7576C74.1666 93.7576 93.7576 74.1666 93.7576 50C93.7576 25.8334 74.1666 6.24243 50 6.24243C25.8334 6.24243 6.24243 25.8334 6.24243 50C6.24243 74.1666 25.8334 93.7576 50 93.7576Z" fill="#EBECE9"/>
<path d="M50 6.24243C36.5455 6.24243 23.8182 12.4849 15.5152 23.0909C32.8485 6.30304 60.5455 6.72728 77.3333 24.1212C92.5455 39.8182 93.8182 64.303 80.3636 81.5152C97.7576 64.7879 98.303 37.0909 81.5152 19.697C73.2727 11.0303 61.8788 6.24243 50 6.24243Z" fill="#C1C1C1"/>
<path d="M50 12.4848C49.5758 12.4848 49.2727 12.1818 49.2727 11.7576V0.727273C49.2727 0.30303 49.5758 0 50 0C50.4242 0 50.7273 0.30303 50.7273 0.727273V11.7576C50.7273 12.1212 50.4242 12.4848 50 12.4848Z" fill="#244583"/>
<path d="M50 100C49.5758 100 49.2727 99.697 49.2727 99.2727V88.2424C49.2727 87.8182 49.5758 87.5151 50 87.5151C50.4242 87.5151 50.7273 87.8182 50.7273 88.2424V99.2727C50.7273 99.697 50.4242 100 50 100Z" fill="#244583"/>
<path d="M99.2727 50.7273H88.2424C87.8182 50.7273 87.5151 50.4243 87.5151 50C87.5151 49.5758 87.8182 49.2727 88.2424 49.2727H99.2727C99.6969 49.2727 100 49.5758 100 50C100 50.4243 99.6969 50.7273 99.2727 50.7273Z" fill="#244583"/>
<path d="M11.7576 50.7273H0.727273C0.30303 50.7273 0 50.4243 0 50C0 49.5758 0.30303 49.2727 0.727273 49.2727H11.7576C12.1818 49.2727 12.4848 49.5758 12.4848 50C12.4848 50.4243 12.1212 50.7273 11.7576 50.7273Z" fill="#244583"/>
<path d="M50 94.4848C25.4546 94.4848 5.51516 74.5454 5.51516 50C5.51516 25.4545 25.4546 5.51514 50 5.51514C74.5455 5.51514 94.4848 25.4545 94.4848 50C94.4848 74.5454 74.5455 94.4848 50 94.4848ZM50 6.96968C26.2424 6.96968 6.9697 26.2424 6.9697 50C6.9697 73.7576 26.2424 93.0303 50 93.0303C73.7576 93.0303 93.0303 73.7576 93.0303 50C93.0303 26.2424 73.7576 6.96968 50 6.96968Z" fill="#244583"/>
<path d="M39.0526 34.8144C40.2991 33.7483 40.5159 31.9561 39.5369 30.8113C38.5578 29.6666 36.7536 29.6028 35.5072 30.6689C34.2607 31.735 34.0439 33.5272 35.0229 34.6719C36.002 35.8167 37.8061 35.8804 39.0526 34.8144Z" fill="#EEEFEE"/>
<path d="M71.0909 93.9394C70.6667 93.9394 70.3636 93.6364 70.3636 93.2121C70.3636 92.9091 70.5455 92.6667 70.7879 92.5455C76.4849 89.7576 81.5758 85.8182 85.7576 81.0303C86 80.7273 86.4849 80.6667 86.7879 80.9697C87.0909 81.2121 87.1515 81.697 86.8485 82C82.5455 86.9697 77.2727 91.0303 71.394 93.8788C71.2727 93.9394 71.1515 93.9394 71.0909 93.9394Z" fill="#244583"/>
<path d="M61.8788 97.2727C61.4545 97.2727 61.1515 96.9697 61.1515 96.5454C61.1515 96.2424 61.3939 95.9394 61.697 95.8182C63.5151 95.3333 65.3333 94.7879 67.1515 94.1212C67.5151 94 67.9394 94.1818 68.0606 94.5454C68.1818 94.9091 68 95.3333 67.6364 95.4545C65.8182 96.1818 63.9394 96.7272 62 97.2121C62 97.2727 61.9394 97.2727 61.8788 97.2727Z" fill="#244583"/>
<path d="M4.42425 35.2727C4.00001 35.2727 3.69698 34.9697 3.69698 34.5455C3.69698 34.4848 3.69698 34.3636 3.75758 34.303C6.48485 26.3636 11.2121 19.2121 17.5152 13.5758C17.8182 13.3333 18.2424 13.3333 18.5455 13.6364C18.7879 13.9394 18.7879 14.3636 18.4849 14.6667C12.3636 20.1212 7.81819 27.0303 5.15152 34.7879C5.03031 35.0909 4.78788 35.2727 4.42425 35.2727Z" fill="#244583"/>
<path d="M23.2121 10.7879C22.7879 10.7879 22.4849 10.4849 22.4849 10.0606C22.4849 9.8182 22.6061 9.57577 22.7879 9.45456C23.8788 8.72729 25.0303 8.00001 26.4849 7.21214C26.8485 7.03032 27.2727 7.15153 27.4546 7.45456C27.6364 7.8182 27.5152 8.24244 27.2121 8.42426C25.8182 9.15153 24.6667 9.8788 23.6364 10.6061C23.4546 10.7273 23.3333 10.7879 23.2121 10.7879Z" fill="#244583"/>
<path d="M35.0303 85.5758C34.9091 85.5758 34.7273 85.5758 34.6061 85.5152C33.1515 84.8485 31.697 84.1212 30.303 83.2727C29.8182 82.9697 29.697 82.3637 30 81.8788C30.303 81.4546 30.9091 81.2727 31.3333 81.5152C32.6667 82.303 34 83.0303 35.3939 83.6364C35.8788 83.8788 36.1212 84.4849 35.9394 84.9697C35.8182 85.3334 35.4545 85.5758 35.0303 85.5758Z" fill="white"/>
<path d="M27.4546 81.0909C27.2121 81.0909 27.0303 81.0303 26.8485 80.9091C21.394 76.7879 17.1515 71.2121 14.6061 64.9091C14.4243 64.3636 14.6667 63.8182 15.1515 63.5757C15.697 63.3939 16.2424 63.6364 16.4849 64.1212C18.9091 70.1212 22.9091 75.3333 28.1212 79.2727C28.5455 79.6364 28.6667 80.2424 28.303 80.6667C28.0606 80.9697 27.7576 81.0909 27.4546 81.0909Z" fill="white"/>
<path d="M37.4545 46.4849C35.6364 46.4849 34.2424 47.9394 34.2424 49.697V66.2424C34.2424 70 37.3333 73.0909 41.0909 73.0909H58.3636C62.1212 73.0909 65.2121 70 65.2121 66.2424V49.697C65.2121 47.8788 63.7576 46.4849 62 46.4849H37.4545Z" fill="#9FEFDE"/>
<path d="M62.3636 46.4849H59.6364C61.2121 46.4849 62.4849 47.9394 62.4849 49.697V66.2424C62.4849 70 59.8182 73.0909 56.5455 73.0909H59.2727C62.5455 73.0909 65.2121 70 65.2121 66.2424V49.697C65.1515 47.9394 63.9394 46.4849 62.3636 46.4849Z" fill="#24C4A1"/>
<path d="M58.3636 74.1818H41.0909C36.7273 74.1818 33.1515 70.6061 33.1515 66.2424V49.697C33.1515 47.3333 35.0909 45.394 37.4545 45.394H61.9394C64.303 45.394 66.2424 47.3333 66.2424 49.697V66.2424C66.303 70.6667 62.7273 74.1818 58.3636 74.1818ZM37.5151 46.8485C35.9394 46.8485 34.6667 48.1212 34.6667 49.697V66.2424C34.6667 69.8182 37.5758 72.7273 41.1515 72.7273H58.4242C62 72.7273 64.9091 69.8182 64.9091 66.2424V49.697C64.9091 48.1212 63.6364 46.8485 62.0606 46.8485H37.5151Z" fill="#244583"/>
<path d="M60.1818 46.8485C59.7576 46.8485 59.4545 46.5455 59.4545 46.1212V38.5455C59.4545 33.2121 55.0909 28.8485 49.7576 28.8485C44.4242 28.8485 40.0606 33.2121 40.0606 38.5455V46.1212C40.0606 46.5455 39.7576 46.8485 39.3333 46.8485C38.9091 46.8485 38.6061 46.5455 38.6061 46.1212V38.5455C38.6061 32.3636 43.6364 27.394 49.7576 27.394C55.8788 27.394 60.9091 32.4243 60.9091 38.5455V46.1212C60.9091 46.5455 60.5455 46.8485 60.1818 46.8485Z" fill="#244583"/>
<path d="M51.8788 60V65.5758C51.8788 66.0606 51.5152 66.4849 51.0303 66.4849H48.4848C48 66.4849 47.6364 66.1212 47.6364 65.5758V60C46.6667 59.3333 46.0606 58.2424 46.0606 56.9697C46.0606 54.9091 47.697 53.2121 49.7576 53.2121C51.7576 53.2121 53.4545 54.9091 53.4545 56.9697C53.3939 58.2424 52.7879 59.3333 51.8788 60Z" fill="#E9ECEF"/>
<path d="M50.9697 67.0909H48.4848C47.697 67.0909 47.0303 66.4243 47.0303 65.5758V60.303C46.0606 59.5152 45.4545 58.2424 45.4545 56.9697C45.4545 54.5455 47.3939 52.6061 49.7576 52.6061C52.1212 52.6061 54.0606 54.5455 54.0606 56.9697C54.0606 58.2424 53.5151 59.5152 52.4848 60.3637V65.6364C52.4848 66.4243 51.8182 67.0909 50.9697 67.0909ZM49.7576 53.8182C48.0606 53.8182 46.6667 55.2121 46.6667 56.9697C46.6667 58 47.1515 58.9697 47.9394 59.5758L48.1818 59.7576V65.6364C48.1818 65.7576 48.303 65.9394 48.4242 65.9394H50.9697C51.0909 65.9394 51.2121 65.8182 51.2121 65.6364V59.7576L51.4545 59.5758C52.2424 58.9697 52.7273 58 52.7273 56.9697C52.7879 55.2121 51.4545 53.8182 49.7576 53.8182Z" fill="#244583"/>
</svg>

<svg xmlns="http://www.w3.org/2000/svg" width="100" height="100" fill="none" xmlns:v="https://vecta.io/nano"><path d="M50 93.758c24.167 0 43.758-19.591 43.758-43.758S74.167 6.242 50 6.242 6.242 25.833 6.242 50 25.833 93.758 50 93.758z" fill="#ebece9"/><path d="M50 6.242c-13.455 0-26.182 6.242-34.485 16.848 17.333-16.788 45.03-16.364 61.818 1.03 15.212 15.697 16.485 40.182 3.03 57.394 17.394-16.727 17.939-44.424 1.152-61.818C73.273 11.03 61.879 6.242 50 6.242z" fill="#c1c1c1"/><g fill="#244583"><path d="M50 12.485a.7.7 0 0 1-.727-.727V.727A.7.7 0 0 1 50 0a.7.7 0 0 1 .727.727v11.03c0 .364-.303.727-.727.727zM50 100a.7.7 0 0 1-.727-.727v-11.03a.7.7 0 0 1 .727-.727.7.7 0 0 1 .727.727v11.03A.7.7 0 0 1 50 100zm49.273-49.273h-11.03a.7.7 0 0 1-.727-.727.7.7 0 0 1 .727-.727h11.03A.7.7 0 0 1 100 50a.7.7 0 0 1-.727.727zm-87.515 0H.727A.7.7 0 0 1 0 50a.7.7 0 0 1 .727-.727h11.03a.7.7 0 0 1 .727.727c0 .424-.364.727-.727.727z"/><path d="M50 94.485C25.455 94.485 5.515 74.545 5.515 50S25.455 5.515 50 5.515 94.485 25.455 94.485 50 74.546 94.485 50 94.485zM50 6.97C26.242 6.97 6.97 26.242 6.97 50S26.242 93.03 50 93.03 93.03 73.758 93.03 50 73.758 6.97 50 6.97z"/></g><path d="M39.053 34.814c1.247-1.066 1.463-2.858.484-4.003s-2.783-1.209-4.03-.142-1.463 2.858-.484 4.003 2.783 1.209 4.03.142z" fill="#eeefee"/><path d="M71.091 93.939a.7.7 0 0 1-.727-.727c0-.303.182-.545.424-.667 5.697-2.788 10.788-6.727 14.97-11.515.242-.303.727-.364 1.03-.061.303.242.364.727.061 1.03-4.303 4.97-9.576 9.03-15.454 11.879-.121.061-.243.061-.303.061zm-9.212 3.334a.7.7 0 0 1-.727-.727c0-.303.242-.606.546-.727l5.454-1.697c.364-.121.788.061.909.424s-.061.788-.424.909c-1.818.727-3.697 1.273-5.636 1.758 0 .061-.061.061-.121.061zm-57.455-62a.7.7 0 0 1-.727-.727c0-.061 0-.182.061-.242 2.727-7.939 7.455-15.091 13.758-20.727.303-.242.727-.242 1.03.061.242.303.242.727-.061 1.03-6.121 5.453-10.667 12.362-13.333 20.12a.73.73 0 0 1-.727.485zm18.788-24.485a.7.7 0 0 1-.727-.727c0-.242.121-.485.303-.606l3.697-2.242c.364-.182.788-.061.97.242.182.364.061.788-.242.97a30.82 30.82 0 0 0-3.576 2.182c-.182.121-.303.182-.424.182z" fill="#244583"/><path d="M35.03 85.576c-.121 0-.303 0-.424-.061-1.455-.667-2.909-1.394-4.303-2.242-.485-.303-.606-.909-.303-1.394.303-.424.909-.606 1.333-.364 1.333.788 2.667 1.515 4.061 2.121a1.11 1.11 0 0 1 .545 1.333c-.121.364-.485.606-.909.606zm-7.575-4.485c-.242 0-.424-.061-.606-.182a37.89 37.89 0 0 1-12.242-16 1.08 1.08 0 0 1 .545-1.333 1.08 1.08 0 0 1 1.333.546c2.424 6 6.424 11.212 11.636 15.151.424.364.545.97.182 1.394-.242.303-.545.424-.848.424z" fill="#fff"/><path d="M37.455 46.485c-1.818 0-3.212 1.454-3.212 3.212v16.545c0 3.758 3.091 6.849 6.848 6.849h17.273c3.758 0 6.849-3.091 6.849-6.849V49.697c0-1.818-1.455-3.212-3.212-3.212H37.455z" fill="#9fefde"/><path d="M62.364 46.485h-2.727c1.576 0 2.849 1.454 2.849 3.212v16.545c0 3.758-2.667 6.849-5.939 6.849h2.727c3.273 0 5.939-3.091 5.939-6.849V49.697c-.061-1.758-1.273-3.212-2.849-3.212z" fill="#24c4a1"/><g fill="#244583"><path d="M58.364 74.182H41.091a7.97 7.97 0 0 1-7.939-7.939V49.697a4.32 4.32 0 0 1 4.303-4.303H61.94a4.32 4.32 0 0 1 4.303 4.303v16.545c.061 4.424-3.515 7.939-7.879 7.939zM37.515 46.849c-1.576 0-2.848 1.273-2.848 2.849v16.545c0 3.576 2.909 6.485 6.485 6.485h17.273c3.576 0 6.485-2.909 6.485-6.485V49.697c0-1.576-1.273-2.849-2.848-2.849H37.515z"/><path d="M60.182 46.849a.7.7 0 0 1-.727-.727v-7.576a9.73 9.73 0 0 0-9.697-9.697 9.73 9.73 0 0 0-9.697 9.697v7.576a.7.7 0 0 1-.727.727.7.7 0 0 1-.727-.727v-7.576c0-6.182 5.03-11.151 11.151-11.151s11.152 5.03 11.152 11.151v7.576c0 .424-.364.727-.727.727z"/></g><path d="M51.879 60v5.576c0 .485-.364.909-.849.909h-2.545c-.485 0-.848-.364-.848-.909V60c-.97-.667-1.576-1.758-1.576-3.03 0-2.061 1.636-3.758 3.697-3.758 2 0 3.697 1.697 3.697 3.758-.061 1.273-.667 2.364-1.576 3.03z" fill="#e9ecef"/><path d="M50.97 67.091h-2.485c-.788 0-1.455-.667-1.455-1.515v-5.273c-.97-.788-1.576-2.061-1.576-3.333 0-2.424 1.939-4.364 4.303-4.364s4.303 1.939 4.303 4.364c0 1.273-.546 2.545-1.576 3.394v5.273c0 .788-.667 1.455-1.515 1.455zm-1.212-13.273c-1.697 0-3.091 1.394-3.091 3.152 0 1.03.485 2 1.273 2.606l.242.182v5.879c0 .121.121.303.242.303h2.546c.121 0 .242-.121.242-.303v-5.879l.242-.182c.788-.606 1.273-1.576 1.273-2.606.061-1.758-1.273-3.152-2.97-3.152z" fill="#244583"/></svg>
